X: 305599
M: 6/8
L: 1/8
K: A
E2A AGA | BcB B2A | Ace ecA | Edc cA G/F/ |\
E2A AGA | BcB B2A | Ace ecA | BEG A2 :|
|: A |\
d2d edc | fdf fed | cde efg | agf edc |\
dfa agf | edcB2A | [f2A2][fA] edc | Bdc BAG |\


